Origami/64x64/apps/dropbox.svg

<svg width="64" height="64" version="1" xmlns="http://www.w3.org/2000/svg">
 <path d="m31.911459 37.002048a1.7779555 1.6924059 0 0 0 -0.786459 0.216487l-9.720486 5.227095-3.378472-0.452805a1.7779555 1.6924059 0 0 0 -2.026042 1.675711v5.261798a1.7779555 1.6924059 0 0 0 0.842014 1.439393l14.222222 8.376903a1.7779555 1.6924059 0 0 0 1.871528 0l14.222222-8.376903a1.7779555 1.6924059 0 0 0 0.842014 -1.439393v-5.770791a1.7779555 1.6924059 0 0 0 -2.460069 -1.561684l-3.078126 1.216296-9.532985-5.56422a1.7779555 1.6924059 0 0 0 -1.017361 -0.247887z" style="opacity:.2"/>
 <path d="m31.911459 36.002048a1.7779555 1.6924059 0 0 0 -0.786459 0.216487l-9.720486 5.227095-3.378472-0.452805a1.7779555 1.6924059 0 0 0 -2.026042 1.675711v5.261798a1.7779555 1.6924059 0 0 0 0.842014 1.439393l14.222222 8.376903a1.7779555 1.6924059 0 0 0 1.871528 0l14.222222-8.376903a1.7779555 1.6924059 0 0 0 0.842014 -1.439393v-5.770791a1.7779555 1.6924059 0 0 0 -2.460069 -1.561684l-3.078126 1.216296-9.532985-5.56422a1.7779555 1.6924059 0 0 0 -1.017361 -0.247887z" style="fill:#1383d9"/>
 <path d="m49 27-17 10-17-10 17-10z" style="opacity:.2"/>
 <path d="M 20,7 4,18 15,27 4,36 20,47 32,37 44,46.667969 60,36 49,27 60,18 44,7 32,17 20,7 Z" style="opacity:.2"/>
 <path d="m20 6l-16 11 11 9-11 9 16 11 12-10 12 9.667969 16-10.667969-11-9 11-9-16-11-12 10-12-10z" style="fill:#5aacff"/>
 <path d="m49 27-17 10-17-10 17-10z" style="opacity:.2"/>
 <path d="m49 26-17 10-17-10 17-10z" style="fill:#ffffff"/>
 <path d="M 20 6 L 4 17 L 4.6640625 17.542969 L 20 7 L 32 17 L 44 7 L 59.335938 17.542969 L 60 17 L 44 6 L 32 16 L 20 6 z M 14.388672 26.5 L 4 35 L 4.6640625 35.457031 L 15 27 L 14.388672 26.5 z M 49.611328 26.5 L 49 27 L 59.326172 35.449219 L 60 35 L 49.611328 26.5 z" style="fill:#ffffff;opacity:.2"/>
</svg>

<svg xmlns="http://www.w3.org/2000/svg" width="64" height="64" version="1">
 <path style="opacity:0.2" d="M 31.911459,37.002048 A 1.7779555,1.6924059 0 0 0 31.125,37.218535 L 21.404514,42.44563 18.026042,41.992825 A 1.7779555,1.6924059 0 0 0 16,43.668536 l 0,5.261798 a 1.7779555,1.6924059 0 0 0 0.842014,1.439393 l 14.222222,8.376903 a 1.7779555,1.6924059 0 0 0 1.871528,0 L 47.157986,50.369727 A 1.7779555,1.6924059 0 0 0 48,48.930334 l 0,-5.770791 a 1.7779555,1.6924059 0 0 0 -2.460069,-1.561684 l -3.078126,1.216296 -9.532985,-5.56422 a 1.7779555,1.6924059 0 0 0 -1.017361,-0.247887 z"/>
 <path style="fill:#1383d9" d="M 31.911459,36.002048 A 1.7779555,1.6924059 0 0 0 31.125,36.218535 L 21.404514,41.44563 18.026042,40.992825 A 1.7779555,1.6924059 0 0 0 16,42.668536 l 0,5.261798 a 1.7779555,1.6924059 0 0 0 0.842014,1.439393 l 14.222222,8.376903 a 1.7779555,1.6924059 0 0 0 1.871528,0 L 47.157986,49.369727 A 1.7779555,1.6924059 0 0 0 48,47.930334 l 0,-5.770791 a 1.7779555,1.6924059 0 0 0 -2.460069,-1.561684 l -3.078126,1.216296 -9.532985,-5.56422 a 1.7779555,1.6924059 0 0 0 -1.017361,-0.247887 z"/>
 <path style="opacity:0.2" d="M 49,27 32,37 15,27 32,17 Z"/>
 <path style="opacity:0.2" d="M 20,7 4,18 15,27 4,36 20,47 32,37 44,46.667969 60,36 49,27 60,18 44,7 32,17 20,7 Z"/>
 <path style="fill:#5aacff" d="M 20 6 L 4 17 L 15 26 L 4 35 L 20 46 L 32 36 L 44 45.667969 L 60 35 L 49 26 L 60 17 L 44 6 L 32 16 L 20 6 z"/>
 <path style="opacity:0.2" d="M 49,27 32,37 15,27 32,17 Z"/>
 <path style="fill:#ffffff" d="M 49,26 32,36 15,26 32,16 Z"/>
 <path style="fill:#ffffff;opacity:0.2" d="M 20 6 L 4 17 L 4.6640625 17.542969 L 20 7 L 32 17 L 44 7 L 59.335938 17.542969 L 60 17 L 44 6 L 32 16 L 20 6 z M 14.388672 26.5 L 4 35 L 4.6640625 35.457031 L 15 27 L 14.388672 26.5 z M 49.611328 26.5 L 49 27 L 59.326172 35.449219 L 60 35 L 49.611328 26.5 z"/>
</svg>
